X: 37
T: No_12_Song_for_the_Person_to_be_Adopted.krn
N: Derived from No_12_Song_for_the_Person_to_be_Adopted.krn
%%abc-version 2.0
%%abcx-abcm2ps-target-version 5.9.1 (29 Sep 2008)
%%abc-creator hum2abc beta
%%abcx-conversion-date 2019/03/15 08:35:44
%%humdrum-veritas 1593845660
%%humdrum-veritas-data 2117139698
%%linebreak <none>
%%barnumbers 0
L: 1/8
M: 2/4
K: Bb clef=bass
[K:clef=bass][M:2/4]CC CC | 
C2CC ||  
[M:3/4]C/C/C/C/ CA, G, z ||  
[M:2/4]B,B, B,G, | 
F,2F,F, ||  
[M:3/4]F,/F,/F,/F,/ F,F, F, z ||  
[M:2/4]G,G, G,B, | 
B,2B,B, ||  
[M:3/4]B,/B,/B,/B,/ B,A, G, z ||  
[M:2/4]B,B, B,G, | 
F,2F,F, ||  
[M:3/4]G,/F,/F,/F,/ E,D, C, z ||  
[M:2/4]D,D, D,C, | 
C,2C,C, ||  
[M:3/4]D,/C,/C,/C,/ C,B,,F,,2 |]  



